assets/emojis/roku.svg

<svg width="56" height="20" viewBox="0 0 56 20" xmlns="http://www.w3.org/2000/svg">
<path d="M16.2533 18.0089H11.4111L7.56333 12.6756H6.26889V18H2V2H8.11111C11.6356 2 14.5144 4.39778 14.5144 7.34667C14.5144 9.14667 13.4111 10.7544 11.7367 11.7367L16.2522 18.0111M10.2522 7.34445C10.2537 6.9929 10.1859 6.64451 10.0526 6.31919C9.91935 5.99388 9.7233 5.69801 9.47565 5.4485C9.22799 5.19899 8.9336 5.00073 8.60929 4.86505C8.28497 4.72938 7.9371 4.65894 7.58555 4.65778H6.26889V10.0089H7.58889C8.29444 10.006 8.97022 9.72423 9.46891 9.22512C9.96761 8.72601 10.2488 8.05 10.2511 7.34445H10.2522Z" />
<path d="M27.6367 11.7344C27.6426 13.0317 27.2635 14.3015 26.5475 15.3831C25.8314 16.4648 24.8105 17.3097 23.614 17.8109C22.4175 18.3121 21.0992 18.4471 19.826 18.1987C18.5528 17.9503 17.3818 17.3298 16.4615 16.4156C15.5411 15.5015 14.9126 14.3348 14.6556 13.0633C14.3986 11.7918 14.5246 10.4726 15.0176 9.27272C15.5107 8.07285 16.3486 7.04624 17.4254 6.32284C18.5022 5.59944 19.7694 5.21176 21.0667 5.20889C21.9269 5.2048 22.7794 5.37047 23.5755 5.69641C24.3715 6.02235 25.0954 6.50216 25.7058 7.10835C26.3161 7.71454 26.8008 8.43519 27.1321 9.22901C27.4635 10.0228 27.6349 10.8742 27.6367 11.7344ZM21.0667 8.30445C19.9356 8.30445 18.98 9.84111 18.98 11.7344C18.98 13.6278 19.9356 15.1622 21.0667 15.1622C22.2189 15.1622 23.1778 13.6289 23.1778 11.7344C23.1778 9.84 22.2222 8.30445 21.0667 8.30445Z" />
<path d="M37.6533 5.47445L32.7367 10.3933V5.46111H28.4667V17.9956H32.7367V12.91L37.8711 17.9956H43.24L36.7178 11.47L42.1222 6.06778V13.5122C42.1222 15.9844 43.6045 18.2611 47.3445 18.2611C49.1222 18.2611 50.7478 17.2533 51.5389 16.3433L53.46 17.9978H54.3689V5.47445H50.1111V13.5856C49.63 14.4244 48.9589 14.9533 47.9256 14.9533C46.8733 14.9533 46.3922 14.3289 46.3922 12.3389V5.47445H37.6533Z" />
</svg>

<svg xmlns="http://www.w3.org/2000/svg" viewBox="0 0 56 20"><path d="M16.25 18h-4.84l-3.85-5.32h-1.3V18H2V2h6.11c3.53 0 6.4 2.4 6.4 5.35 0 1.8-1.1 3.4-2.77 4.39L16.25 18m-6-10.67a2.65 2.65 0 0 0-1.64-2.48c-.33-.13-.67-.2-1.03-.2H6.27V10h1.32a2.67 2.67 0 0 0 2.66-2.67z"/><path d="M27.64 11.73a6.56 6.56 0 0 1-1.1 3.65 6.55 6.55 0 0 1-2.92 2.43 6.56 6.56 0 0 1-3.8.39 6.55 6.55 0 0 1-3.36-1.78 6.56 6.56 0 0 1-1.44-7.15 6.56 6.56 0 0 1 2.4-2.95 6.55 6.55 0 0 1 3.65-1.11 6.54 6.54 0 0 1 6.57 6.52zM21.07 8.3c-1.13 0-2.09 1.54-2.09 3.43s.96 3.43 2.09 3.43c1.15 0 2.1-1.53 2.1-3.43s-.95-3.43-2.1-3.43zm16.58-2.83-4.91 4.92V5.46h-4.27V18h4.27v-5.1l5.13 5.1h5.37l-6.52-6.53 5.4-5.4v7.44c0 2.47 1.48 4.75 5.22 4.75 1.78 0 3.4-1 4.2-1.92L53.46 18h.9V5.47h-4.25v8.12c-.48.83-1.15 1.36-2.19 1.36-1.05 0-1.53-.62-1.53-2.61V5.47h-8.74z"/></svg>
